X:7
T:Bourre de Coubau
C:Trad.
O:France
A:Artense
M:3/4
L:1/4
K:C
f>de | d/c/ B/c/ d/!breath!e/ | f>de | d/c/d_e | f>de | d/c/ B/c/ d/e/ | fd/f/e | d/c/d2 ||
f>de | d/c/ B/c/ d | GAB | cd/e/ d/c/ | B/c/de | f>de | d/c/ B/c/ d | GAB | c d/e/ d/=B/ | c3 |]
